src/components/Icon/assets/lightning-filled.svg

<svg width="24" height="24" viewBox="0 0 24 24" fill="none" xmlns="http://www.w3.org/2000/svg">
<path fill-rule="evenodd" clip-rule="evenodd" d="M18.5402 10.2255L14.2212 9.2255L16.3032 2.1435C16.4492 1.6465 15.8352 1.2825 15.4702 1.6495L5.14621 12.0025C4.86921 12.2805 5.00521 12.7545 5.38821 12.8425L9.70721 13.8425L7.62421 20.9245C7.47821 21.4215 8.09221 21.7855 8.45821 21.4175L18.7812 11.0655C19.0582 10.7875 18.9222 10.3135 18.5402 10.2255" fill="#65676A"/>
</svg>

<svg xmlns="http://www.w3.org/2000/svg" width="24" height="24" viewBox="0 0 24 24">
    <path fill="#65676A" fill-rule="evenodd" d="M18.54 10.226l-4.319-1 2.082-7.082c.146-.497-.468-.861-.833-.494L5.146 12.003c-.277.278-.14.752.242.84l4.32 1-2.084 7.082c-.146.497.468.86.834.493l10.323-10.352c.277-.278.141-.752-.24-.84"/>
</svg>
